X: 1
T: Paddy Gavin's
S: Gannon Bros.
Z: B.Black
R: reel
M: 4/4
L: 1/8
K: G
|:DEF|GABG BddB|cdec dBGB|ce~e2 dBGB|AGFE DEFD|
GABG BddB|cdec dBGB|ce~e2 dBGB|AGFA G:|
|:ABc|~d3g edBc|dG~G2 dGBG|eg~g2 edBd|eaag agef|
gdBA GABG|cABG AGED|EGce dBGB|AGFA G:|
